; generated by PrusaSlicer 2.8.0+win64 on 2024-09-13 at 17:17:06 UTC


;
;

;
;

;
;

;
;
; 

; external perimeters extrusion width = 0.45mm
; perimeters extrusion width = 0.45mm
; infill extrusion width = 0.45mm
; solid infill extrusion width = 0.45mm
; top infill extrusion width = 0.40mm
; first layer extrusion width = 0.50mm

M73 P0 R12
M201 X4000 Y4000 Z200 E2500 ; sets maximum accelerations, mm/sec^2
M203 X300 Y300 Z40 E100 ; sets maximum feedrates, mm / sec
M204 P4000 R1200 T4000 ; sets acceleration (P, T) and retract acceleration (R), mm/sec^2
M205 X8.00 Y8.00 Z2.00 E10.00 ; sets the jerk limits, mm/sec
M205 S0 T0 ; sets the minimum extruding and travel feed rate, mm/sec

M486 S0
M486 AMK4_Z-axis_cover-up v8.stl
M486 S-1

;TYPE:Custom
M17 ; enable steppers
M862.1 P0.4 ; nozzle diameter check
M862.3 P "MK4" ; printer model check
M862.5 P2 ; g-code level check
M862.6 P"Input shaper" ; FW feature check
M115 U5.0.0+12056

M555 X110.205 Y85.9506 W32 H34.3026

G90 ; use absolute coordinates
M83 ; extruder relative mode

M140 S60 ; set bed temp

M104 S170 ; set extruder temp for bed leveling
M109 R170 ; wait for temp


M84 E ; turn off E motor

G28 ; home all without mesh bed level

G1 X42 Y-4 Z5 F4800

M302 S160 ; lower cold extrusion limit to 160C


G1 E-2 F2400 ; retraction


M84 E ; turn off E motor

G29 P9 X10 Y-4 W32 H4

M106 S100

G0 Z40 F10000

M190 S60 ; wait for bed temp

M107

;
; MBL
;
M84 E ; turn off E motor
G29 P1 ; invalidate mbl & probe print area
G29 P1 X0 Y0 W50 H20 C ; probe near purge place
G29 P3.2 ; interpolate mbl probes
G29 P3.13 ; extrapolate mbl outside probe area
G29 A ; activate mbl

; prepare for purge
M104 S230
G0 X0 Y-4 Z15 F4800 ; move away and ready for the purge
M109 S230

G92 E0
M569 S0 E ; set spreadcycle mode for extruder

;
; Extrude purge line
;
G92 E0 ; reset extruder position
G1 E2 F2400 ; deretraction after the initial one before nozzle cleaning
G0 E7 X15 Z0.2 F500 ; purge
G0 X25 E4 F500 ; purge
G0 X35 E4 F650 ; purge
G0 X45 E4 F800 ; purge
M73 P1 R12
G0 X48 Z0.05 F8000 ; wipe, move close to the bed
G0 X51 Z0.2 F8000 ; wipe, move quickly away from the bed

G92 E0
M221 S100 ; set flow to 100%
G21 ; set units to millimeters
G90 ; use absolute coordinates
M83 ; use relative distances for extrusion
M900 K0.05 ; Filament gcode


M572 S0.036 ; Filament gcode


M142 S36 ; set heatbreak target temp
M107
;LAYER_CHANGE
;Z:0.2
;HEIGHT:0.2
G1 E-.7 F2100
G1 Z.8 F720
M486 S0
G1 X128.864 Y97.796 F18000
G1 Z.2 F720
G1 E.7 F2100
M204 P500
;TYPE:Perimeter
;WIDTH:0.499999
G1 F2400
G1 X128.864 Y91.406 E.24286
G3 X138.43 Y102.268 I-1.368 J10.849 E.60116
G1 X138.434 Y114.736 E.47386
G2 X130.958 Y109.832 I-10.934 J8.517 E.346
G1 X131.383 Y109.523 E.01997
G2 X132.552 Y108.416 I-2.744 J-4.066 E.06147
G1 X132.953 Y107.91 E.02454
G2 X133.573 Y106.74 I-17.391 J-9.957 E.05033
G1 X133.918 Y105.616 E.04469
G1 X134.058 Y104.448 E.04471
G1 X134.014 Y103.477 E.03694
G2 X133.706 Y102.13 I-15.358 J2.803 E.05253
G1 X133.353 Y101.309 E.03397
G2 X132.655 Y100.193 I-10.28 J5.656 E.05005
G2 X131.739 Y99.249 I-14.822 J13.472 E.05
G1 X130.952 Y98.678 E.03695
G2 X129.709 Y98.079 I-7.115 J13.187 E.05246
G1 X128.874 Y97.849 E.03292
M204 P3000
M204 T4000
G1 X128.874 Y97.849 F18000
G1 X128.407 Y98.207
M204 P500
G1 F2400
G1 X128.407 Y90.912 E.27726
G3 X130.126 Y91.168 I-.556 J9.646 E.06614
G3 X138.887 Y102.262 I-2.638 J11.09 E.57951
G1 X138.887 Y116.188 E.52928
G2 X129.589 Y110.014 I-11.376 J7.044 E.43757
G1 X130.684 Y109.466 E.04654
G1 X131.115 Y109.153 E.02024
G2 X131.955 Y108.431 I-2.912 J-4.237 E.04218
G1 X132.561 Y107.671 E.03694
G2 X133.138 Y106.599 I-17.517 J-10.116 E.04628
G1 X133.465 Y105.555 E.04158
G1 X133.601 Y104.469 E.0416
G1 X133.558 Y103.498 E.03694
G2 X133.286 Y102.31 I-19.821 J3.905 E.04633
G1 X132.933 Y101.49 E.03393
G2 X132.288 Y100.466 I-10.34 J5.8 E.04602
G1 X131.47 Y99.619 E.04475
G1 X130.684 Y99.048 E.03692
G2 X129.587 Y98.52 I-8.875 J17.029 E.04628
G1 X128.65 Y98.261 E.03695
G1 X128.447 Y98.232 E.00779
M204 P3000
G1 X128.447 Y98.232 F18000
G1 X127.95 Y98.632
M204 P500
;TYPE:External perimeter
G1 F2400
G1 X127.949 Y90.425 E.31192
G3 X132.816 Y91.664 I-.375 J11.657 E.19238
G3 X139.344 Y102.255 I-5.335 J10.596 E.49774
G1 X139.348 Y115.973 E.52137
G1 X139.389 Y116.677 E.0268
;WIDTH:0.540368
G2 X139.514 Y117.697 I3.952 J.031 E.04263
;WIDTH:0.512799
G1 X139.538 Y118.08 E.01499
G1 X139.538 Y119.038 E.03743
G1 X139.098 Y117.944 E.04607
;WIDTH:0.536866
G2 X138.746 Y116.876 I-5.218 J1.126 E.04627
;WIDTH:0.499999
G2 X137.454 Y114.967 I-9.956 J5.349 E.08776
G2 X129.523 Y110.467 I-9.97 J8.33 E.35411
G1 X129.005 Y110.391 E.0199
;WIDTH:0.505841
G1 X128.497 Y110.343 E.01964
;WIDTH:0.507116
G1 X127.954 Y110.313 E.02099
G1 X127.954 Y109.878 E.01679
G1 X128.492 Y109.822 E.02088
;WIDTH:0.505841
G1 X128.975 Y109.689 E.01928
;WIDTH:0.499999
G1 X129.642 Y109.473 E.02665
G1 X130.416 Y109.096 E.03272
G1 X131.212 Y108.516 E.03743
G1 X131.598 Y108.146 E.02032
G1 X132.204 Y107.386 E.03694
G1 X132.703 Y106.458 E.04005
G1 X133.013 Y105.494 E.03849
G1 X133.145 Y104.49 E.03849
G1 X133.101 Y103.519 E.03694
G1 X132.991 Y103.018 E.01949
G1 X132.866 Y102.491 E.02059
G1 X132.514 Y101.671 E.03392
G2 X131.922 Y100.74 I-10.871 J6.252 E.04195
G1 X131.201 Y99.989 E.03957
G2 X129.466 Y98.96 I-4.657 J5.882 E.0769
G1 X128.492 Y98.695 E.03836
G1 X128.003 Y98.644 E.01869
M204 P3000
G1 X127.952 Y98.248 F18000
G1 E-.7 F2100
G1 X133.452 Y93.302 Z.329 F18000
G1 Z.2 F720
G1 E.7 F2100
M204 P500
;TYPE:Solid infill
;WIDTH:0.503851
G1 F2400
G1 X135.19 Y95.04 E.0942
G3 X136.808 Y97.31 I-7.658 J7.17 E.10716
M73 P2 R12
G1 X132.438 Y92.94 E.23686
G2 X131.244 Y92.398 I-4.558 J8.452 E.0503
G1 X137.35 Y98.504 E.33096
G3 X137.664 Y99.469 I-8.184 J3.192 E.03892
G1 X130.279 Y92.085 E.40025
G2 X129.431 Y91.888 I-2.49 J8.832 E.03338
G1 X137.86 Y100.318 E.4569
G1 X137.975 Y101.084 E.02969
G1 X129.252 Y92.362 E.47278
G1 X129.252 Y93.014 E.02499
G1 X138.028 Y101.789 E.47565
G1 X138.042 Y102.455 E.02553
G1 X129.252 Y93.665 E.47644
G1 X129.252 Y94.317 E.02499
G1 X138.042 Y103.107 E.47644
G1 X138.042 Y103.759 E.02499
G1 X129.252 Y94.969 E.47644
G1 X129.252 Y95.621 E.02499
G1 X138.042 Y104.411 E.47644
G1 X138.043 Y105.063 E.02499
G1 X129.252 Y96.273 E.47646
G1 X129.253 Y96.925 E.02499
G1 X130.624 Y98.297 E.07434
M204 P3000
G1 E-.7 F2100
G1 X130.624 Y98.297 F18000
G1 X133.476 Y101.148 Z.27
G1 Z.2 F720
G1 E.7 F2100
M204 P500
G1 F2400
G1 X138.043 Y105.715 E.24754
G1 X138.043 Y106.367 E.02499
G1 X134.218 Y102.542 E.20732
G3 X134.39 Y103.367 I-7.802 J2.061 E.03231
G1 X138.043 Y107.019 E.19797
G1 X138.043 Y107.671 E.02499
G1 X134.429 Y104.056 E.19591
G3 X134.433 Y104.713 I-3.75 J.353 E.02521
G1 X138.044 Y108.323 E.1957
G1 X138.044 Y108.975 E.02499
G1 X134.355 Y105.287 E.19992
G3 X134.263 Y105.847 I-4.281 J-.414 E.02177
G1 X138.044 Y109.627 E.20491
G1 X138.044 Y110.279 E.02499
G1 X134.11 Y106.345 E.21323
G1 X133.95 Y106.837 E.01983
G1 X138.044 Y110.931 E.2219
G1 X138.044 Y111.584 E.02503
G1 X133.743 Y107.282 E.23315
G1 X133.513 Y107.704 E.01842
G1 X138.045 Y112.236 E.24564
G1 X138.045 Y112.888 E.02499
G1 X133.276 Y108.119 E.25849
G1 X132.989 Y108.484 E.0178
G1 X138.045 Y113.54 E.27405
G1 X138.045 Y113.671 E.00502
G2 X134.986 Y111.132 I-10.321 J9.325 E.15289
M73 P3 R12
G1 X132.702 Y108.849 E.12377
G3 X132.392 Y109.191 I-2.02 J-1.518 E.01772
G1 X133.562 Y110.36 E.06339
G2 X132.434 Y109.884 I-5.791 J12.14 E.04694
G1 X131.909 Y109.359 E.02846
M204 P3000
G1 E-.7 F2100
G1 X131.909 Y109.359 F18000
G1 X119.065 Y109.826 Z.424
G1 Z.2 F720
G1 E.7 F2100
M204 P500
;TYPE:Perimeter
;WIDTH:0.499999
G1 F2400
G2 X112.351 Y113.81 I3.464 J13.487 E.30075
G1 X111.566 Y114.739 E.04623
G1 X111.57 Y102.268 E.47398
G3 X121.135 Y91.406 I10.934 J-.013 E.60113
G1 X121.136 Y97.846 E.24476
G1 X120.099 Y98.151 E.04108
G1 X119.223 Y98.573 E.03696
G2 X118.107 Y99.385 I8.518 J12.897 E.05247
G1 X117.438 Y100.084 E.03677
G2 X116.675 Y101.239 I12.045 J8.789 E.05263
G1 X116.455 Y101.754 E.02128
G2 X116.119 Y102.814 I4.013 J1.856 E.04237
G1 X115.986 Y103.478 E.02574
G1 X115.952 Y104.654 E.04471
G1 X116.128 Y105.817 E.0447
G1 X116.509 Y106.93 E.04471
G2 X117.082 Y107.956 I20.451 J-10.749 E.04467
G1 X117.688 Y108.716 E.03694
G2 X118.617 Y109.549 I12.519 J-13.027 E.04743
G1 X119.014 Y109.794 E.01773
M204 P3000
G1 X119.014 Y109.794 F18000
G1 X120.491 Y110.003
M204 P500
G1 F2400
G2 X111.693 Y115.321 I2.016 J13.271 E.40096
G1 X111.109 Y116.188 E.03973
G1 X111.113 Y102.774 E.50982
G3 X111.619 Y98.899 I12.289 J-.364 E.14916
G3 X120.548 Y91.031 I10.901 J3.37 E.47582
G1 X121.592 Y90.902 E.03998
G1 X121.593 Y98.227 E.2784
G1 X121.349 Y98.261 E.00936
G1 X120.297 Y98.563 E.0416
G1 X119.422 Y98.985 E.03692
G2 X118.437 Y99.7 I11.21 J16.463 E.04627
G1 X117.768 Y100.4 E.0368
G2 X117.095 Y101.419 I15.352 J10.877 E.04642
G1 X116.875 Y101.934 E.02128
G2 X116.564 Y102.916 I3.508 J1.65 E.03927
G1 X116.443 Y103.499 E.02263
G1 X116.405 Y104.592 E.04157
G1 X116.563 Y105.675 E.0416
G1 X116.911 Y106.713 E.04161
G1 X117.44 Y107.671 E.04159
G1 X118.046 Y108.431 E.03694
G2 X118.962 Y109.232 I13.206 J-14.192 E.04625
G1 X119.907 Y109.784 E.04159
G1 X120.435 Y109.982 E.02143
M204 P3000
G1 E-.7 F2100
G1 X120.435 Y109.982 F18000
G1 X122.051 Y109.887 Z.228
G1 Z.2 F720
G1 E.7 F2100
M204 P500
;TYPE:External perimeter
G1 F2400
G1 X122.051 Y109.933 E.00175
G1 X122.051 Y110.316 E.01456
G2 X116.444 Y111.812 I.435 J12.883 E.22246
G2 X112.069 Y115.58 I6.07 J11.471 E.2213
G2 X111.236 Y116.921 I11.437 J8.04 E.06003
;WIDTH:0.518049
G2 X110.825 Y118.148 I15.107 J5.743 E.05114
;WIDTH:0.510662
G1 X110.461 Y119.05 E.03783
G1 X110.483 Y117.712 E.05205
;WIDTH:0.537168
G2 X110.629 Y116.697 I-5.089 J-1.251 E.04221
;WIDTH:0.499999
G1 X110.652 Y116.188 E.01936
G1 X110.655 Y102.774 E.50982
G3 X111.185 Y98.755 I12.742 J-.365 E.15473
G3 X122.049 Y90.416 I11.324 J3.506 E.55493
G1 X122.05 Y98.639 E.31253
G1 X121.471 Y98.702 E.02214
G1 X120.496 Y98.975 E.03848
G2 X118.768 Y100.016 I2.966 J6.878 E.07691
G1 X118.099 Y100.716 E.0368
G1 X117.488 Y101.663 E.04283
G1 X117.122 Y102.527 E.03566
G1 X116.899 Y103.519 E.03864
G1 X116.858 Y104.531 E.03849
G1 X116.997 Y105.534 E.03848
G1 X117.314 Y106.496 E.0385
G1 X117.797 Y107.386 E.03849
G2 X119.197 Y108.839 I5.966 J-4.345 E.07693
G1 X120.031 Y109.338 E.03694
G1 X120.356 Y109.464 E.01325
G1 X121.026 Y109.71 E.02713
G1 X121.991 Y109.877 E.03722
M204 P3000
G1 X122.049 Y110.273 F18000
G1 E-.7 F2100
G1 X120.953 Y92.546 Z.51 F18000
G1 Z.2 F720
G1 E.7 F2100
M204 P500
;TYPE:Solid infill
;WIDTH:0.503742
G1 F2400
G1 X120.341 Y91.935 E.03314
G1 X119.814 Y92.06 E.02075
G1 X120.747 Y92.992 E.05053
G1 X120.747 Y93.644 E.02498
G1 X119.309 Y92.206 E.07792
G1 X118.823 Y92.372 E.01968
G1 X120.747 Y94.296 E.10426
G1 X120.747 Y94.948 E.02498
G1 X118.356 Y92.557 E.12957
G1 X117.91 Y92.763 E.01882
G1 X120.747 Y95.599 E.15371
G1 X120.747 Y96.251 E.02498
G1 X117.48 Y92.984 E.17704
G1 X117.065 Y93.221 E.01831
M73 P4 R12
G1 X120.747 Y96.903 E.19952
G1 X120.744 Y97.551 E.02483
G1 X116.664 Y93.472 E.22106
G1 X116.281 Y93.74 E.01791
G1 X120.233 Y97.692 E.21416
G2 X119.769 Y97.879 I.766 J2.573 E.0192
G1 X115.913 Y94.024 E.20893
G1 X115.558 Y94.321 E.01774
G1 X119.329 Y98.091 E.20432
G2 X118.898 Y98.313 I1.739 J3.91 E.01859
G1 X115.217 Y94.631 E.1995
G1 X114.891 Y94.957 E.01767
G1 X118.519 Y98.585 E.1966
G1 X118.142 Y98.86 E.01788
G1 X114.58 Y95.298 E.19302
G1 X114.283 Y95.652 E.01771
G1 X117.792 Y99.161 E.19015
G1 X117.471 Y99.492 E.01767
G1 X113.999 Y96.02 E.18814
G1 X113.73 Y96.403 E.01793
G1 X117.15 Y99.823 E.18533
G2 X116.874 Y100.199 I2.417 J2.065 E.01789
G1 X113.479 Y96.803 E.184
G1 X113.242 Y97.218 E.01831
G1 X116.615 Y100.591 E.18278
G2 X116.367 Y100.994 I2.798 J2.003 E.01815
G1 X113.02 Y97.647 E.18137
G1 X112.813 Y98.093 E.01884
G1 X116.165 Y101.444 E.18161
G1 X115.97 Y101.901 E.01904
G1 X112.628 Y98.559 E.1811
G1 X112.462 Y99.045 E.01968
G1 X115.815 Y102.398 E.1817
G1 X115.694 Y102.929 E.02087
G1 X112.315 Y99.55 E.18311
G2 X112.191 Y100.077 I4.964 J1.443 E.02075
G1 X115.597 Y103.483 E.18457
G1 X115.57 Y104.108 E.02397
G1 X112.089 Y100.627 E.18863
G1 X112.015 Y101.204 E.02229
G1 X115.575 Y104.764 E.19291
G1 X115.677 Y105.518 E.02915
G1 X111.972 Y101.813 E.20077
G1 X111.958 Y102.451 E.02445
G1 X115.91 Y106.403 E.21416
G2 X116.401 Y107.546 I4.27 J-1.158 E.04783
G1 X111.958 Y103.103 E.24076
G1 X111.958 Y103.754 E.02494
G1 X117.955 Y109.752 E.325
G1 X117.474 Y109.922 E.01955
G1 X111.958 Y104.406 E.29891
G1 X111.957 Y105.057 E.02494
G1 X117.008 Y110.108 E.27371
G1 X116.555 Y110.306 E.01894
G1 X111.957 Y105.709 E.24913
G1 X111.957 Y106.36 E.02494
G1 X116.112 Y110.516 E.22518
G1 X115.686 Y110.741 E.01846
G1 X111.957 Y107.012 E.20207
G1 X111.957 Y107.663 E.02494
G1 X115.269 Y110.976 E.1795
G1 X114.867 Y111.225 E.01812
G1 X111.957 Y108.315 E.15769
G1 X111.956 Y108.966 E.02494
G1 X114.473 Y111.483 E.13639
G1 X114.091 Y111.753 E.01792
G1 X111.956 Y109.618 E.11569
G1 X111.956 Y110.27 E.02498
G1 X113.72 Y112.034 E.09559
G1 X113.359 Y112.324 E.01774
G1 X111.956 Y110.921 E.07603
G1 X111.956 Y111.573 E.02498
M73 P5 R12
G1 X113.011 Y112.628 E.05717
G1 X112.669 Y112.938 E.01769
G1 X111.955 Y112.224 E.03869
G1 X111.955 Y112.876 E.02498
G1 X112.343 Y113.263 E.021
G1 X112.024 Y113.596 E.01767
G1 X111.749 Y113.321 E.0149
M204 P3000
M106 S127.5
;LAYER_CHANGE
;Z:0.3
;HEIGHT:0.1
;BEFORE_LAYER_CHANGE
G92 E0.0
;0.3
M201 X3999.89 Y3999.89
M74 W0.0989086

G1 E-.7 F2100
G1 X111.749 Y113.321 Z.2 F18000
G1 X128.582 Y98.054 Z.597
;AFTER_LAYER_CHANGE
;0.3
M104 S225 ; set temperature
G1 X128.582 Y98.054
M73 P5 R11
G1 Z.3 F720
G1 E.7 F2100
M204 P2500
;TYPE:Perimeter
;WIDTH:0.449999
G1 F8398.597
G1 X128.582 Y90.952 E.12653
G1 F6561.465
G1 X128.824 Y90.974 E.00433
G1 F6819.623
G3 X130.153 Y91.212 I-1.763 J13.689 E.02406
G1 F6843.181
G3 X132.061 Y91.855 I-2.949 J11.899 E.03591
G1 F6833.668
G3 X133.252 Y92.464 I-5.676 J12.567 E.02384
G1 F6887.232
G1 X133.931 Y92.899 E.01437
G1 F6851.876
G3 X134.87 Y93.617 I-7.4 J10.647 E.02107
G1 F6843.473
G1 X135.358 Y94.059 E.01173
G1 F6854.974
G1 X135.872 Y94.587 E.01313
G1 F6847.305
G1 X136.255 Y95.026 E.01038
G1 F6868.693
G1 X136.699 Y95.603 E.01297
G1 F6817.085
G1 X137.033 Y96.089 E.01051
G1 F6791.423
G1 X137.374 Y96.652 E.01173
G1 F6807.788
G1 X137.682 Y97.235 E.01175
G1 F6827.749
G1 X137.956 Y97.834 E.01174
G1 F6860.486
G1 X138.224 Y98.538 E.01342
G1 F6819.191
G3 X138.573 Y99.76 I-12.229 J4.146 E.02265
G1 F6831.188
G1 X138.691 Y100.358 E.01086
G1 F6853.96
G1 X138.782 Y101.011 E.01175
G1 F6880.506
G1 X138.835 Y101.667 E.01173
G1 F6928.564
G1 X138.852 Y102.302 E.01132
G1 F8400
G1 X138.852 Y115.796 E.24042
G1 F7670.817
G1 X138.448 Y115.215 E.01261
G1 F7857.537
G1 X137.919 Y114.54 E.01528
G1 F8075.11
G1 X137.393 Y113.946 E.01414
G1 F8241.432
G1 X136.833 Y113.385 E.01412
G1 F8347.423
G1 X136.288 Y112.899 E.01301
G1 F8397.326
G1 X135.618 Y112.364 E.01528
G1 F8395.722
G1 X134.968 Y111.908 E.01415
G1 F8335.171
G1 X134.254 Y111.473 E.0149
G1 F8209.277
G1 X133.594 Y111.115 E.01338
G1 F8029.34
G1 X132.877 Y110.781 E.01409
G1 F7790.744
G1 X132.063 Y110.462 E.01558
G1 F7603.022
G1 X131.416 Y110.249 E.01214
G1 F7568.553
G1 X130.672 Y110.047 E.01374
G1 F7512.652
G1 X130.14 Y109.935 E.00969
G1 F7615.9
G1 X130.802 Y109.597 E.01324
G1 F7888.024
G1 X131.543 Y109.06 E.0163
G1 F8075.296
G1 X131.827 Y108.789 E.00699
G1 F8222.141
G1 X132.469 Y108.096 E.01683
G1 F8340.841
G1 X132.78 Y107.624 E.01007
G1 F8389.017
G1 X133.074 Y107.147 E.00998
G1 F8400
G1 X133.501 Y106.105 E.02006
G1 X133.734 Y105.004 E.02005
G1 X133.767 Y103.879 E.02005
G1 X133.642 Y102.953 E.01665
G2 X133.235 Y101.701 I-13.995 J3.856 E.02346
G1 X132.792 Y100.878 E.01665
G1 F8383.077
G1 X132.48 Y100.459 E.00931
G1 F8310.732
G1 X131.971 Y99.849 E.01415
G1 F8130.643
G1 X131.268 Y99.234 E.01664
G1 F7927.258
G1 X130.925 Y99.01 E.0073
G1 F7672.903
G1 X130.118 Y98.551 E.01654
G1 F7293.257
G1 X129.078 Y98.18 E.01967
G1 F7240.24
G1 X128.606 Y98.094 E.00855
M204 P3000
G1 X128.606 Y98.094 F18000
G1 X128.154 Y98.439
M204 P2500
G1 F8398.658
G1 X128.153 Y90.518 E.14113
G1 F4731.271
