; generated by PrusaSlicer 2.9.2 on 2025-08-23 at 06:06:51 UTC


; printer_model = MK4S
; filament_type = PLA
; filament_abrasive = 0
; nozzle_diameter = 0.4
; nozzle_high_flow = 1
; bed_temperature = 60
; brim_width = 2
; fill_density = 20%
; layer_height = 0.2
; temperature = 225
; ironing = 0
; support_material = 0
; extruder_colour = ""
; max_layer_z = 2.00
; objects_info = {"objects":[{"name":"Eurorack_IJ_1U_05hp_norib_blank.stl","polygon":[[225.279,151.119],[225.811,151.371],[226.115,151.620],[226.465,152.093],[226.656,152.615],[226.656,188.552],[226.465,189.074],[226.115,189.547],[225.811,189.796],[225.279,190.048],[224.796,190.129],[203.158,190.129],[202.311,189.897],[201.838,189.547],[201.589,189.243],[201.337,188.711],[201.256,188.227],[201.256,152.939],[201.488,152.093],[201.984,151.488],[202.311,151.270],[202.834,151.079]]},{"name":"Eurorack_IJ_1U_10hp_norib_blank.stl","polygon":[[149.023,85.556],[149.555,85.808],[149.859,86.057],[150.209,86.530],[150.400,87.052],[150.400,122.989],[150.108,123.680],[149.713,124.116],[149.208,124.418],[148.540,124.566],[101.502,124.566],[100.655,124.334],[100.050,123.838],[99.748,123.333],[99.600,122.664],[99.600,87.376],[99.832,86.530],[100.328,85.925],[100.655,85.707],[101.177,85.516]]},{"name":"Eurorack_IJ_1U_04hp_norib_blank.stl","polygon":[[28.023,151.306],[28.555,151.558],[28.859,151.807],[29.209,152.280],[29.400,152.802],[29.400,188.739],[29.294,189.083],[28.991,189.588],[28.713,189.866],[28.208,190.168],[27.638,190.311],[10.982,190.316],[10.313,190.168],[9.808,189.866],[9.413,189.430],[9.161,188.898],[9.080,188.415],[9.080,153.127],[9.228,152.458],[9.530,151.953],[9.808,151.675],[10.135,151.457],[10.658,151.266]]},{"name":"Eurorack_IJ_1U_08hp_norib_blank.stl","polygon":[[233.523,14.493],[234.055,14.745],[234.359,14.994],[234.709,15.467],[234.900,15.989],[234.900,51.926],[234.709,52.448],[234.359,52.921],[233.708,53.355],[233.040,53.503],[196.162,53.503],[195.493,53.355],[194.842,52.921],[194.408,52.270],[194.260,51.601],[194.260,16.313],[194.408,15.645],[194.842,14.994],[195.315,14.644],[195.837,14.453]]},{"name":"Eurorack_IJ_1U_06hp_norib_blank.stl","polygon":[[46.879,18.311],[47.411,18.563],[47.715,18.812],[48.065,19.285],[48.256,19.807],[48.256,55.744],[47.964,56.435],[47.715,56.739],[47.242,57.089],[46.395,57.321],[19.677,57.321],[19.194,57.240],[18.662,56.988],[18.358,56.739],[18.008,56.266],[17.776,55.419],[17.776,20.131],[17.857,19.648],[18.109,19.116],[18.662,18.563],[19.353,18.271]]}]}
; filament used [mm] = 4148.57
; filament used [g] = 12.47
; filament cost = 0.35
; filament used [cm3] = 9.98
; total filament used for wipe tower [g] = 0.00
; estimated printing time (normal mode) = 27m 44s
; estimated printing time (silent mode) = 31m 10s

;
;

;
;

;
;

;
;

M73 P0 R27
M73 Q0 S31
M201 X4000 Y4000 Z200 E2500
M203 X300 Y300 Z40 E100
M204 P4000 R2500 T4000
M205 X8.00 Y8.00 Z2.00 E10.00
M205 S0 T0
M486 S0
M486 AEurorack_IJ_1U_05hp_norib_blank.stl
M486 S-1
M486 S1
M486 AEurorack_IJ_1U_10hp_norib_blank.stl
M486 S-1
M486 S2
M486 AEurorack_IJ_1U_04hp_norib_blank.stl
M486 S-1
M486 S3
M486 AEurorack_IJ_1U_08hp_norib_blank.stl
M486 S-1
M486 S4
M486 AEurorack_IJ_1U_06hp_norib_blank.stl
M486 S-1
;TYPE:Custom
M17
M862.1 P0.4 A0 F1
M862.3 P "MK4S"
M862.5 P2
M862.6 P"Input shaper"
M115 U6.2.4+8909
M555 X7.1805 Y8.55278 W229.62 H183.663
G90
M83
M140 S60
M104 T0 S170
M109 T0 R170
M84 E
G28
G1 X42 Y-4 Z5 F4800
M302 S155
G1 E-2 F2400
M84 E
G29 P9 X10 Y-4 W32 H4
M106 S100
G0 Z40 F10000
M190 S60
M107
; MBL
M84 E
G29 P1
G29 P1 X0 Y0 W50 H20 C
G29 P3.2
G29 P3.13
G29 A
; prepare for purge
M104 S230
G0 X0 Y-4 Z15 F4800
M109 S230
G92 E0
M569 S0 E
; Extrude purge line
G92 E0
G1 E2 F2400
G0 E7 X15 Z0.2 F500
G0 X25 E4 F500
G0 X35 E4 F650
G0 X45 E4 F800
G0 X48 Z0.05 F8000
G0 X51 Z0.2 F8000
G92 E0
M221 S100
G21
G90
M83
M572 S0.036
M142 S36
M107
;LAYER_CHANGE
;Z:0.2
;HEIGHT:0.2
G1 E-.7 F2100
G1 Z.8 F720
G1 X200.454 Y150.935 F18000
G1 Z.2 F720
G1 E.7 F1500
M204 P500





;TYPE:Skirt/Brim
;WIDTH:0.5
G1 F2400
G3 X202.777 Y149.579 I2.778 J2.092 E.10497
G1 X225.183 Y149.581 E.85157
G3 X228.156 Y152.557 I-.442 J3.414 E.172
G1 X228.156 Y188.609 E1.3702
G3 X224.856 Y191.627 I-3.447 J-.455 E.18462
G1 X203.123 Y191.629 E.82599
G3 X199.757 Y188.262 I.135 J-3.501 E.19894
M73 Q0 S30
G1 X199.757 Y152.905 E1.34379
G3 X200.418 Y150.983 I3.475 J.122 E.07839
M204 P4000
M204 T4000
G1 X200.788 Y151.252 F18000
M204 P500
G1 F2400
G3 X202.8 Y150.036 I2.446 J1.775 E.09177
G1 X225.166 Y150.038 E.85005
G3 X227.699 Y152.581 I-.43 J2.961 E.1463
G1 X227.699 Y188.586 E1.36842
G3 X224.821 Y191.172 I-2.991 J-.434 E.15958
G1 X203.135 Y191.172 E.82421
G3 X200.214 Y188.25 I.121 J-3.043 E.17258
G1 X200.214 Y152.917 E1.34288
G3 X200.753 Y151.301 I3.02 J.11 E.06563
M204 P4000
G1 X201.129 Y151.562 F18000
M204 P500
G1 F2400
G3 X202.823 Y150.493 I2.108 J1.466 E.07821
G1 X225.148 Y150.495 E.84849
G3 X227.242 Y152.605 I-.421 J2.512 E.12064
G1 X227.242 Y188.561 E1.36656
G3 X224.808 Y190.714 I-2.534 J-.412 E.13373
M73 P1 R27
G1 X203.148 Y190.715 E.82322
G3 X200.671 Y188.237 I.107 J-2.585 E.1463
G1 X200.671 Y152.93 E1.34189
G3 X201.095 Y151.611 I2.566 J.098 E.05332
M73 Q1 S30
M204 P4000
G1 X201.476 Y151.863 F18000
M204 P500
G1 F2400
G3 X202.849 Y150.95 I1.766 J1.166 E.06437
G1 X225.131 Y150.952 E.84686
G3 X226.785 Y152.632 I-.42 J2.068 E.09507
G1 X226.785 Y188.535 E1.36454
G3 X224.795 Y190.257 I-2.079 J-.391 E.10795
G1 X203.161 Y190.257 E.82223
G3 X201.128 Y188.224 I.092 J-2.125 E.11998
G1 X201.128 Y152.943 E1.3409
G3 X201.444 Y151.914 I2.114 J.086 E.04137
M204 P4000
G1 E-.7 F2100
G1 X178.241 Y139.074 Z.663 F18000
G1 X174.804 Y137.172 Z.723
G1 X171.368 Y135.271 Z.766
G1 X164.495 Y131.468 Z.8
G1 X151.495 Y124.274
G1 Z.2 F720
G1 E.7 F1500
M204 P500
G1 F2400
G3 X148.576 Y126.066 I-3.043 J-1.684 E.13611
G1 X101.467 Y126.066 E1.79044
G3 X98.1 Y122.701 I.134 J-3.501 E.1989
G1 X98.1 Y87.342 E1.34387
G3 X101.121 Y84.016 I3.476 J.122 E.18566
G1 X148.926 Y84.018 E1.81689
G3 X151.9 Y86.994 I-.441 J3.414 E.17203
G1 X151.9 Y123.047 E1.37024
G3 X151.524 Y124.221 I-3.448 J-.457 E.0471
M204 P4000
G1 X151.121 Y124.007 F18000
M204 P500
G1 F2400
G3 X148.562 Y125.609 I-2.669 J-1.418 E.12015
G1 X101.479 Y125.609 E1.78945
G3 X98.557 Y122.687 I.121 J-3.043 E.17262
G1 X98.557 Y87.354 E1.34288
G3 X101.143 Y84.473 I3.021 J.11 E.15969
G1 X148.909 Y84.475 E1.81541
G3 X151.443 Y87.018 I-.429 J2.961 E.14633
G1 X151.443 Y123.023 E1.36842
G3 X151.148 Y123.954 I-2.991 J-.434 E.03728
M204 P4000
G1 X150.741 Y123.747 F18000
M204 P500
G1 F2400
G3 X148.549 Y125.152 I-2.289 J-1.161 E.10378
G1 X101.492 Y125.152 E1.78846
G3 X99.014 Y122.674 I.106 J-2.584 E.14634
M73 P2 R27
G1 X99.014 Y87.367 E1.34189
G3 X101.167 Y84.93 I2.567 J.098 E.13383
G1 X148.892 Y84.932 E1.81385
G3 X150.986 Y87.043 I-.421 J2.512 E.12067
G1 X150.986 Y122.998 E1.36652
G3 X150.768 Y123.694 I-2.534 J-.412 E.02781
M204 P4000
G1 X150.357 Y123.496 F18000
M204 P500
G1 F2400
M73 Q2 S30
G3 X148.536 Y124.695 I-1.907 J-.915 E.08706
G1 X101.505 Y124.695 E1.78748
G3 X99.471 Y122.661 I.092 J-2.126 E.12005
G1 X99.471 Y87.38 E1.3409
G3 X101.193 Y85.387 I2.114 J.086 E.10805
G1 X148.875 Y85.389 E1.81222
G3 X150.529 Y87.069 I-.421 J2.068 E.09507
G1 X150.529 Y122.972 E1.36454
G3 X150.382 Y123.442 I-2.079 J-.391 E.01876
M204 P4000
G1 E-.7 F2100
G1 X164.641 Y101.083 Z.663 F18000
G1 X166.753 Y97.771 Z.723
G1 X168.865 Y94.46 Z.766
G1 X173.088 Y87.837 Z.8
G1 X194.377 Y54.456
G1 Z.2 F720
G1 E.7 F1500
M204 P500
G1 F2400
G3 X192.761 Y51.638 I1.884 J-2.954 E.12838
G1 X192.761 Y16.277 E1.34394
G3 X195.779 Y12.953 I3.475 J.124 E.18549
G1 X233.427 Y12.955 E1.43086
G3 X236.4 Y15.931 I-.442 J3.414 E.172
G1 X236.4 Y51.983 E1.3702
G3 X233.076 Y55.003 I-3.447 J-.456 E.18556
M73 P2 R26
G1 X196.125 Y55.003 E1.40437
G3 X194.428 Y54.487 I.136 J-3.501 E.06815
M204 P4000
G1 X194.667 Y54.098 F18000
M204 P500
G1 F2400
G3 X193.218 Y51.624 I1.593 J-2.595 E.11346
G1 X193.218 Y16.29 E1.34292
G3 X195.803 Y13.41 I3.02 J.111 E.15962
G1 X233.409 Y13.412 E1.42927
G3 X235.943 Y15.955 I-.429 J2.961 E.14633
G1 X235.943 Y51.959 E1.36838
G3 X233.063 Y54.545 I-2.99 J-.433 E.15966
G1 X196.139 Y54.545 E1.40335
G3 X194.719 Y54.129 I.121 J-3.042 E.05681
M73 P3 R26
M204 P4000
G1 X194.95 Y53.735 F18000
M204 P500
G1 F2400
G3 X193.675 Y51.611 I1.308 J-2.23 E.09819
G1 X193.675 Y16.304 E1.34189
G3 X195.828 Y13.867 I2.565 J.097 E.13384
G1 X233.392 Y13.869 E1.42767
G3 X235.486 Y15.979 I-.421 J2.511 E.12064
G1 X235.486 Y51.935 E1.36656
G3 X233.049 Y54.088 I-2.534 J-.412 E.13384
G1 X196.152 Y54.088 E1.40232
G3 X195.002 Y53.765 I.106 J-2.583 E.04581
M204 P4000
G1 X195.224 Y53.366 F18000
M204 P500
G1 F2400
G3 X194.132 Y51.597 I1.033 J-1.86 E.08255
G1 X194.132 Y16.317 E1.34086
G3 X195.854 Y14.324 I2.113 J.086 E.10806
M73 Q3 S30
G1 X233.375 Y14.326 E1.42604
G3 X235.029 Y16.005 I-.42 J2.068 E.09504
G1 X235.029 Y51.909 E1.36458
G3 X233.036 Y53.631 I-2.079 J-.391 E.10806
G1 X196.166 Y53.631 E1.40129
G3 X195.277 Y53.394 I.091 J-2.125 E.03525
M204 P4000
G1 E-.7 F2100
G1 X168.757 Y53.394 Z.663 F18000
G1 X164.83 Y53.394 Z.723
G1 X160.903 Y53.394 Z.766
G1 X153.048 Y53.394 Z.8
G1 X49.756 Y53.394
G1 Z.2 F720
G1 E.7 F1500
M204 P500
G1 F2400
G1 X49.756 Y55.8 E.09144
G3 X46.43 Y58.821 I-3.448 J-.455 E.18566
G1 X19.643 Y58.821 E1.01808
G3 X16.276 Y55.454 I.134 J-3.501 E.19898
G1 X16.276 Y20.097 E1.34379
G3 X19.297 Y16.771 I3.475 J.122 E.18566
G1 X46.782 Y16.773 E1.0446
G3 X49.756 Y19.749 I-.441 J3.414 E.17203
G1 X49.756 Y53.334 E1.27644
M204 P4000
G1 X49.299 Y53.334 F18000
M204 P500
G1 F2400
G1 X49.299 Y55.778 E.09289
G3 X46.418 Y58.364 I-2.991 J-.435 E.15969
G1 X19.655 Y58.364 E1.01716
G3 X16.733 Y55.442 I.121 J-3.043 E.17262
G1 X16.733 Y20.109 E1.34288
G3 X19.319 Y17.228 I3.02 J.11 E.15969
G1 X46.765 Y17.23 E1.04312
G3 X49.299 Y19.773 I-.429 J2.961 E.14633
G1 X49.299 Y53.274 E1.27325
M204 P4000
G1 X48.842 Y53.274 F18000
M204 P500
G1 F2400
G1 X48.842 Y55.754 E.09426
G3 X46.405 Y57.906 I-2.535 J-.414 E.1338
G1 X19.668 Y57.906 E1.01618
G3 X17.19 Y55.429 I.106 J-2.584 E.1463
M73 P4 R26
G1 X17.19 Y20.121 E1.34193
G3 X19.343 Y17.685 I2.566 J.099 E.1338
G1 X46.748 Y17.687 E1.04156
G3 X48.842 Y19.797 I-.421 J2.511 E.12064
G1 X48.842 Y53.214 E1.27006
M204 P4000
G1 X48.384 Y53.214 F18000
M73 Q3 S29
M204 P500
G1 F2400
G1 X48.384 Y55.728 E.09555
G3 X46.392 Y57.449 I-2.078 J-.393 E.10798
G1 X19.681 Y57.449 E1.01519
G3 X17.647 Y55.416 I.092 J-2.125 E.12002
G1 X17.647 Y20.135 E1.3409
G3 X19.369 Y18.142 I2.114 J.086 E.10805
G1 X46.731 Y18.144 E1.03993
G3 X48.384 Y19.823 I-.421 J2.068 E.09501
G1 X48.384 Y53.154 E1.26679
M204 P4000
G1 E-.7 F2100
M73 Q4 S29
G1 X42.981 Y79.117 Z.663 F18000
G1 X42.181 Y82.962 Z.723
G1 X41.381 Y86.807 Z.766
G1 X39.78 Y94.497 Z.8
G1 X28.266 Y149.819
G1 Z.2 F720
G1 E.7 F1500
M204 P500
G1 F2400
G3 X30.9 Y152.744 I-.812 J3.38 E.15903
G1 X30.9 Y188.795 E1.37017
G3 X27.772 Y191.804 I-3.45 J-.455 E.17812
G1 X10.946 Y191.816 E.63949
G3 X7.581 Y188.452 I.136 J-3.501 E.19879
G1 X7.581 Y153.09 E1.34398
G3 X10.561 Y149.77 I3.479 J.126 E.18403
G1 X27.927 Y149.768 E.66002
G1 X28.207 Y149.81 E.01076
M204 P4000
G1 X28.11 Y150.261 F18000
M204 P500
G1 F2400
G3 X30.443 Y152.768 I-.63 J2.925 E.13857
G1 X30.443 Y188.773 E1.36842
G3 X27.723 Y191.35 I-2.993 J-.435 E.15358
G1 X10.959 Y191.359 E.63714
G3 X8.038 Y188.44 I.121 J-3.043 E.17247
G1 X8.038 Y153.104 E1.34299
G3 X10.624 Y150.223 I3.02 J.11 E.15969
G1 X27.91 Y150.225 E.65698
G3 X28.051 Y150.249 I-.43 J2.961 E.00544
M204 P4000
G1 X27.963 Y150.695 F18000
M204 P500
G1 F2400
G3 X29.986 Y152.793 I-.492 J2.499 E.11793
G1 X29.986 Y188.749 E1.36656
G3 X27.674 Y190.895 I-2.537 J-.415 E.12908
G1 X10.973 Y190.902 E.63474
G3 X8.495 Y188.427 I.106 J-2.584 E.14623
G1 X8.495 Y153.117 E1.342
G3 X10.647 Y150.681 I2.566 J.098 E.13376
G1 X27.892 Y150.682 E.65542
G3 X27.904 Y150.684 I-.421 J2.512 E.00046
M73 P5 R26
M204 P4000
G1 X27.875 Y151.139 F18000
M204 P500
G1 F2400
G3 X29.529 Y152.819 I-.42 J2.068 E.09507
G1 X29.529 Y188.723 E1.36458
G3 X27.627 Y190.44 I-2.082 J-.394 E.10458
G1 X10.986 Y190.445 E.63246
G3 X8.952 Y188.414 I.091 J-2.126 E.11994
G1 X8.952 Y153.131 E1.34098
G3 X10.673 Y151.138 I2.114 J.085 E.10802
G1 X27.815 Y151.139 E.6515
M204 P4000
G1 E-.7 F2100
M486 S2
G1 X22.799 Y153.673 Z.298 F18000
G1 Z.2 F720
G1 E.7 F1500
M204 P500





;TYPE:External perimeter
;WIDTH:0.499999
G1 F2400
G1 X22.891 Y154.233 E.02157
G1 X22.813 Y154.829 E.02284
G1 X22.565 Y155.376 E.02283
G1 X22.167 Y155.83 E.02295
G1 X21.656 Y156.148 E.02287
G1 X21.019 Y156.31 E.02498
G1 X17.462 Y156.31 E.13519
G1 X16.886 Y156.174 E.02249
G1 X16.365 Y155.873 E.02287
G1 X15.953 Y155.432 E.02294
G1 X15.688 Y154.893 E.02283
G1 X15.668 Y154.829 E.00255
G1 X15.59 Y154.3 E.02032
G1 X15.668 Y153.703 E.02288
G1 X15.916 Y153.156 E.02283
G1 X16.214 Y152.793 E.01785
G1 X16.643 Y152.474 E.02032
;WIDTH:0.532261
G1 X17.199 Y152.247 E.02444
G1 X17.634 Y152.203 E.01779
;WIDTH:0.51996
G1 X20.847 Y152.203 E.12745
;WIDTH:0.531664
G1 X21.08 Y152.213 E.00948
G1 X21.595 Y152.358 E.02174
;WIDTH:0.499999
G1 X22.116 Y152.66 E.02289
G1 X22.528 Y153.1 E.02291
G1 X22.782 Y153.616 E.02186
M204 P4000
G1 X22.854 Y154.01 F18000
G1 E-.7 F2100
G1 X22.247 Y180.522 Z.663 F18000
G1 X22.158 Y184.448 Z.723
G1 X22.128 Y185.747 Z.739
G1 Z.2 F720
G1 E.7 F1500
M204 P500
G1 F2400
G1 X22.404 Y185.989 E.01395
G1 X22.722 Y186.5 E.02287
G1 X22.878 Y187.082 E.0229
G1 X22.858 Y187.683 E.02285
G1 X22.664 Y188.253 E.02288
G1 X22.315 Y188.742 E.02283
G1 X21.838 Y189.108 E.02285
;WIDTH:0.531269
G1 X21.281 Y189.335 E.02442
;WIDTH:0.537439
G1 X21.223 Y189.351 E.00247
G1 X20.847 Y189.378 E.0155
;WIDTH:0.51911
G1 X17.634 Y189.379 E.12722
;WIDTH:0.530829
G1 X17.402 Y189.368 E.00942
G1 X16.887 Y189.224 E.02169
;WIDTH:0.499999
G1 X16.365 Y188.923 E.0229
G1 X15.953 Y188.482 E.02294
G1 X15.688 Y187.943 E.02283
G1 X15.59 Y187.35 E.02284
G1 X15.668 Y186.753 E.02288
G1 X15.916 Y186.206 E.02283
G1 X16.214 Y185.843 E.01785
G1 X16.643 Y185.524 E.02032
G1 X17.205 Y185.312 E.02283
G1 X17.635 Y185.264 E.01644
G1 X21.02 Y185.272 E.12865
G1 X21.469 Y185.364 E.01742
G1 X21.952 Y185.593 E.02032
G1 X22.083 Y185.707 E.0066
M204 P4000
G1 X22.378 Y185.977 F18000
G1 E-.7 F2100
G1 X28.478 Y188.63 Z.316 F18000
G1 Z.2 F720
G1 E.7 F1500
M204 P500
;TYPE:Perimeter
G1 F2400
G1 X28.444 Y188.721 E.00369
G1 X28.212 Y189.087 E.01647
G1 X27.956 Y189.277 E.01212
G1 X27.566 Y189.405 E.0156
G1 X22.203 Y189.406 E.20383
G1 X22.683 Y189.013 E.02358
G1 X23.094 Y188.408 E.0278
G1 X23.315 Y187.706 E.02797
G1 X23.321 Y186.971 E.02794
G1 X23.114 Y186.265 E.02796
G1 X22.711 Y185.65 E.02795
G1 X22.148 Y185.18 E.02787
G1 X21.583 Y184.919 E.02365
G1 X21.021 Y184.815 E.02172
G1 X17.636 Y184.807 E.12865
G1 X17.05 Y184.882 E.02245
G1 X16.371 Y185.157 E.02784
G1 X15.819 Y185.592 E.02671
G1 X15.503 Y186.011 E.01995
G1 X15.216 Y186.686 E.02788
G1 X15.138 Y187.417 E.02794
G1 X15.274 Y188.138 E.02789
G1 X15.614 Y188.789 E.02791
G1 X15.975 Y189.187 E.02042
G1 X16.285 Y189.408 E.01447
G1 X11.143 Y189.409 E.19543
G1 X10.771 Y189.363 E.01425
G1 X10.475 Y189.222 E.01246
G1 X10.238 Y189.008 E.01214
G1 X10.065 Y188.718 E.01283
G1 X9.988 Y188.368 E.01362
G1 X9.988 Y153.283 E1.33345
G1 X10.034 Y152.915 E.0141
G1 X10.174 Y152.619 E.01244
G1 X10.389 Y152.382 E.01216
G1 X10.79 Y152.173 E.01719
G1 X16.282 Y152.173 E.20873
G1 X15.819 Y152.542 E.0225
G1 X15.503 Y152.961 E.01995
G1 X15.216 Y153.636 E.02788
G2 X15.14 Y154.383 I3.25 J.709 E.0286
G1 X15.274 Y155.088 E.02727
G1 X15.614 Y155.739 E.02791
G1 X16.13 Y156.265 E.028
G1 X16.776 Y156.617 E.02796
G1 X17.462 Y156.768 E.0267
G1 X21.019 Y156.768 E.13519
G1 X21.185 Y156.747 E.00636
G1 X21.892 Y156.54 E.028
G1 X22.506 Y156.137 E.02791
G1 X22.978 Y155.572 E.02798
G1 X23.265 Y154.896 E.02791
G1 X23.343 Y154.165 E.02794
G1 X23.207 Y153.444 E.02789
G1 X22.866 Y152.793 E.02793
G1 X22.506 Y152.395 E.0204
G1 X22.193 Y152.173 E.01458
G1 X27.714 Y152.173 E.20983
G1 X27.847 Y152.223 E.0054
G1 X28.213 Y152.454 E.01645
G3 X28.493 Y152.953 I-1.472 J1.157 E.02183
G1 X28.493 Y153.095 E.0054
G1 X28.493 Y188.573 E1.34839
M204 P4000
G1 X28.916 Y188.763 F18000
